X: 160
T: Set de la Baie St. Paul
C:
R: reel
B: NEFR #160
Z: 2012 John Chambers <jc:trillian.mit.edu>
M: C|
L: 1/8
K: D
A2 |\
"D"f2 f2 f2 e2 | d2 d2 d2 cd | "G"e2 d2 c2 d2 | "Em"B6 B2 |\
"A"ee ee e2 d2 | c=c cd ^c2 B2 | "A7"A2 g2 f2 e2 | d6 :|
|: FG |\
"D"AB AF D2 FG | AB AF D2 FG | "D"A2 d2 c2 d2 | "Em"E6 EF |\
"A7"GF ED C2 EF | GF ED C2 EF | "G"G2 B2 "A7"A2 C2 | D6 :|
